client/public/company.svg

<?xml version="1.0" encoding="utf-8"?><!-- Uploaded to: SVG Repo, www.svgrepo.com, Generator: SVG Repo Mixer Tools -->
<svg width="800px" height="800px" viewBox="0 0 24 24" fill="none" xmlns="http://www.w3.org/2000/svg">
<path d="M3 21.0002H21M6 18.0002V10.0002M10 18.0002V10.0002M14 18.0002V10.0002M18 18.0002V10.0002M20 7.00022L12.424 2.26522C12.2702 2.16908 12.1933 2.12102 12.1108 2.10227C12.0379 2.0857 11.9621 2.0857 11.8892 2.10227C11.8067 2.12102 11.7298 2.16908 11.576 2.26522L4 7.00022H20Z" stroke="#000000" stroke-width="2" stroke-linecap="round" stroke-linejoin="round"/>
</svg>

<svg viewBox="0 0 24 24" fill="none" xmlns="http://www.w3.org/2000/svg"><path d="M3 21h18M6 18v-8m4 8v-8m4 8v-8m4 8v-8m2-3-7.576-4.735c-.154-.096-.23-.144-.313-.163a.5.5 0 0 0-.222 0c-.082.019-.16.067-.313.163L4 7h16Z" stroke="#000" stroke-width="2" stroke-linecap="round" stroke-linejoin="round"/></svg>
